src/main/resources/icons/AllIcons/objectBrowser/abbreviatePackageNames.svg

<svg xmlns="http://www.w3.org/2000/svg" width="16" height="16" viewBox="0 0 16 16"><rect id="frame" width="16" height="16" fill="none"/><g fill="#6E6E6E" fill-rule="evenodd"><path d="M8.5 13H3V8h11v5H2V3h4.6l1.156 2H14v8H8.5z"/><path d="M5.684 15.088c-.792 0-1.504-.456-1.504-1.304v-.016c0-.912.72-1.36 1.752-1.36.472 0 .808.072 1.136.176v-.104c0-.6-.368-.92-1.048-.92-.472 0-.824.104-1.208.264l-.264-.76a3.667 3.667 0 0 1 1.6-.344c.632 0 1.104.168 1.4.472.312.304.456.752.456 1.304V15H7.06v-.528c-.288.344-.728.616-1.376.616zm.24-.704c.64 0 1.128-.368 1.128-.904v-.288a2.684 2.684 0 0 0-.96-.168c-.624 0-.992.264-.992.704v.016c0 .408.36.64.824.64zM9 15v-1h1v1H9zm4.416.088c-.704 0-1.144-.352-1.44-.744V15H11V9h.976v2.48c.312-.44.752-.792 1.44-.792.992 0 1.96.784 1.96 2.192v.016c0 1.4-.96 2.192-1.96 2.192zm-.084-.84c.664 0 1.208-.52 1.208-1.352v-.016c0-.816-.56-1.352-1.208-1.352-.656 0-1.232.544-1.232 1.352v.016c0 .808.576 1.352 1.232 1.352z"/></g></svg>

<!-- Copyright 2000-2021 JetBrains s.r.o. Use of this source code is governed by the Apache 2.0 license that can be found in the LICENSE file. -->
<svg xmlns="http://www.w3.org/2000/svg" width="16" height="16" viewBox="0 0 16 16">
  <g fill="none" fill-rule="evenodd">
    <path fill="#6E6E6E" d="M8.5,13 L3,13 L3,8 L14,8 L14,13 L8.5,13 L2,13 L2,5 L2,3 L6.60006714,3 L7.75640322,5 L14,5 L14,13 L8.5,13 Z"/>
    <path fill="#6E6E6E" d="M5.684,15.088 C4.892,15.088 4.18,14.632 4.18,13.784 L4.18,13.768 C4.18,12.856 4.9,12.408 5.932,12.408 C6.404,12.408 6.74,12.48 7.068,12.584 L7.068,12.48 C7.068,11.88 6.7,11.56 6.02,11.56 C5.548,11.56 5.196,11.664 4.812,11.824 L4.548,11.064 C5.02,10.856 5.476,10.72 6.148,10.72 C6.78,10.72 7.252,10.888 7.548,11.192 C7.86,11.496 8.004,11.944 8.004,12.496 L8.004,15 L7.06,15 L7.06,14.472 C6.772,14.816 6.332,15.088 5.684,15.088 Z M5.924,14.384 C6.564,14.384 7.052,14.016 7.052,13.48 L7.052,13.192 C6.804,13.096 6.476,13.024 6.092,13.024 C5.468,13.024 5.1,13.288 5.1,13.728 L5.1,13.744 C5.1,14.152 5.46,14.384 5.924,14.384 Z M9,15 L9,14 L10,14 L10,15 L9,15 Z M13.416,15.088 C12.712,15.088 12.272,14.736 11.976,14.344 L11.976,15 L11,15 L11,9 L11.976,9 L11.976,11.48 C12.288,11.04 12.728,10.688 13.416,10.688 C14.408,10.688 15.376,11.472 15.376,12.88 L15.376,12.896 C15.376,14.296 14.416,15.088 13.416,15.088 Z M13.332,14.248 C13.996,14.248 14.54,13.728 14.54,12.896 L14.54,12.88 C14.54,12.064 13.98,11.528 13.332,11.528 C12.676,11.528 12.1,12.072 12.1,12.88 L12.1,12.896 C12.1,13.704 12.676,14.248 13.332,14.248 Z"/>
  </g>
</svg>
